X:3
T:Boys of Bluehill
M:4/4
L:1/8
R:hornpipe
C:Traditional
K:D
dB | (3(ABA) FA DA FA | BA (3Bcd (3(efe) de | fa (3(g/a/g/)f eg (3(f/g/f/)e | df ed B2 dB |
(3(ABA) FA DA FA | BA (3Bcd (3(efe) de | fa (3(g/a/g/)f eg (3(f/g/f/)e | d2 c2 d2 :|
|: fg | af df ({g}a2) gf | ef ga ({a}b2) ag | fa (3(g/a/g/)f eg (3(f/g/f/)e | df ed B2 dB|
(3(ABA) FA DA FA | BA (3Bcd (3(efe) de | fa (3(g/a/g/)f eg (3(f/g/f/)e | d2 c2 d2 :|

%%newpage
%%scale .7
%%staffsep 35

